svgs/sharp-solid/chess-pawn.svg

<svg xmlns="http://www.w3.org/2000/svg" viewBox="0 0 320 512"><!--! Font Awesome Pro 6.6.0 by @fontawesome - https://fontawesome.com License - https://fontawesome.com/license (Commercial License) Copyright 2024 Fonticons, Inc. --><path d="M215.5 224c29.2-18.4 48.5-50.9 48.5-88c0-57.4-46.6-104-104-104S56 78.6 56 136c0 37.1 19.4 69.6 48.5 88L96 224l-32 0 0 64 28.4 0L80 400l160 0L227.6 288l28.4 0 0-64-32 0-8.5 0zM16 512l288 0 0-32-48-48L64 432 16 480l0 32z"/></svg>

<svg xmlns="http://www.w3.org/2000/svg" viewBox="0 0 320 512"><!--! Font Awesome Pro 6.4.0 by @fontawesome - https://fontawesome.com License - https://fontawesome.com/license (Commercial License) Copyright 2023 Fonticons, Inc. --><path d="M215.5 224c29.2-18.4 48.5-50.9 48.5-88c0-57.4-46.6-104-104-104S56 78.6 56 136c0 37.1 19.4 69.6 48.5 88H96 64v64H92.4L80 400H240L227.6 288H256V224H224h-8.5zM16 512H304V480l-48-48H64L16 480v32z"/></svg>
